physalisproject/media/25t.svg

<?xml version="1.0" encoding="UTF-8" standalone="no"?>
<svg
   version="1.0"
   width="355.25168pt"
   height="77.304008pt"
   viewBox="0 0 355.25167 77.304007"
   preserveAspectRatio="xMidYMid"
   id="svg4"
   sodipodi:docname="25t.svg"
   inkscape:version="1.3 (0e150ed, 2023-07-21)"
   xmlns:inkscape="http://www.inkscape.org/namespaces/inkscape"
   xmlns:sodipodi="http://sodipodi.sourceforge.net/DTD/sodipodi-0.dtd"
   xmlns="http://www.w3.org/2000/svg"
   xmlns:svg="http://www.w3.org/2000/svg">
  <sodipodi:namedview
     id="namedview4"
     pagecolor="#ffffff"
     bordercolor="#000000"
     borderopacity="0.25"
     inkscape:showpageshadow="2"
     inkscape:pageopacity="0.0"
     inkscape:pagecheckerboard="0"
     inkscape:deskcolor="#d1d1d1"
     inkscape:document-units="pt"
     inkscape:zoom="1.8553303"
     inkscape:cx="227.99175"
     inkscape:cy="98.634727"
     inkscape:window-width="1440"
     inkscape:window-height="819"
     inkscape:window-x="0"
     inkscape:window-y="25"
     inkscape:window-maximized="0"
     inkscape:current-layer="svg4" />
  <defs
     id="defs4">
    <marker
       style="overflow:visible"
       id="ConcaveTriangle"
       refX="0"
       refY="0"
       orient="auto-start-reverse"
       inkscape:stockid="Concave triangle arrow"
       markerWidth="1"
       markerHeight="1"
       viewBox="0 0 1 1"
       inkscape:isstock="true"
       inkscape:collect="always"
       preserveAspectRatio="xMidYMid">
      <path
         transform="scale(0.7)"
         d="M -2,-4 9,0 -2,4 c 2,-2.33 2,-5.66 0,-8 z"
         style="fill:context-stroke;fill-rule:evenodd;stroke:none"
         id="path12" />
    </marker>
  </defs>
  <metadata
     id="metadata1">&#10;Created by potrace 1.16, written by Peter Selinger 2001-2019&#10;</metadata>
  <g
     id="g2"
     transform="matrix(0.78946572,0,0,0.78946572,25.413279,3.2695962)">
    <path
       d="m 115.105,28 v 0 H 112.2 q 0.77,-2.8 1.453,-5.652 0.682,-2.853 1.312,-5.723 0.035,-0.07 0.123,-0.56 0.087,-0.49 0.087,-0.91 0,-0.595 -0.228,-0.997 -0.227,-0.403 -0.822,-0.403 -0.875,0 -1.907,0.91 -1.033,0.91 -2.065,2.345 -1.033,1.435 -1.961,3.08 -0.927,1.645 -1.592,3.115 L 105.515,28 h -2.87 l 2.8,-13.3 q 0,0 0.053,-0.385 0.052,-0.385 0.052,-0.77 0,-0.455 -0.245,-0.7 -0.245,-0.245 -0.875,-0.245 -0.35,0 -0.735,0.035 -0.385,0.035 -0.385,0.035 v -0.945 l 4.83,-0.385 h 0.805 l -1.75,7.595 h 0.28 q 0.56,-1.05 1.383,-2.362 0.822,-1.313 1.89,-2.538 1.067,-1.225 2.362,-2.012 1.295,-0.788 2.8,-0.788 1.33,0 1.767,0.77 0.438,0.77 0.438,1.715 0,0.77 -0.14,1.61 -0.14,0.84 -0.175,0.98 l -0.595,2.24 h 0.28 q 0.56,-1.015 1.365,-2.257 0.805,-1.243 1.838,-2.398 1.032,-1.155 2.239,-1.907 1.208,-0.753 2.573,-0.753 1.33,0 1.785,0.77 0.455,0.77 0.455,1.715 0,0.665 -0.14,1.435 -0.14,0.77 -0.21,1.155 l -1.925,8.085 q 0,0 -0.053,0.262 -0.052,0.263 -0.052,0.578 0,0.665 0.665,0.665 0.91,0 1.557,-0.665 0.648,-0.665 1.068,-1.155 l 0.7,0.525 q -0.455,0.63 -1.102,1.523 -0.648,0.892 -1.541,1.557 -0.892,0.665 -2.152,0.665 -1.33,0 -1.82,-0.647 -0.49,-0.648 -0.49,-1.418 0,-0.42 0.07,-0.823 0.07,-0.402 0.105,-0.542 l 1.785,-6.79 q 0.175,-0.7 0.367,-1.557 0.193,-0.858 0.193,-1.418 0,-0.595 -0.228,-0.997 -0.227,-0.403 -0.822,-0.403 -0.665,0 -1.488,0.665 -0.822,0.665 -1.714,1.733 -0.893,1.067 -1.716,2.345 -0.822,1.277 -1.505,2.502 -0.682,1.225 -1.067,2.17 z"
       id="path2" />
  </g>
  <g
     id="g3"
     transform="matrix(0.90180424,0,0,0.90180424,23.514007,7.4554077)">
    <path
       d="m 214.56,7.228 v 0 h -1.14 q 0.038,-1.824 -0.209,-2.85 -0.247,-1.026 -1.311,-1.444 -1.064,-0.418 -3.534,-0.418 h -5.7 l -2.052,9.88 h 4.218 q 1.634,0 2.527,-0.304 0.893,-0.304 1.368,-1.121 0.475,-0.817 0.779,-2.337 h 1.216 l -1.748,8.854 h -1.254 q 0.304,-1.634 0.152,-2.394 -0.152,-0.76 -0.969,-1.007 -0.817,-0.247 -2.451,-0.247 h -4.104 l -1.634,8.132 q -0.076,0.38 -0.114,0.703 -0.038,0.323 -0.038,0.589 0,0.988 0.912,1.292 0.912,0.304 2.66,0.304 L 201.944,26 H 191 l 0.228,-1.14 q 1.33,0 2.109,-0.228 0.779,-0.228 1.254,-0.931 0.475,-0.703 0.741,-2.109 l 3.382,-16.264 q 0.266,-1.33 0.152,-1.995 -0.114,-0.665 -0.836,-0.912 -0.722,-0.247 -2.28,-0.247 l 0.228,-1.14 h 19.608 z"
       id="path3" />
  </g>
  <g
     id="g4"
     transform="matrix(0.90180424,0,0,0.90180424,29.577618,12.256337)">
    <path
       d="m 330.742,55 v 0 h -10.146 l 0.228,-1.14 q 1.406,0 2.147,-0.266 0.741,-0.266 1.121,-1.007 0.38,-0.741 0.646,-2.109 l 3.382,-16.416 h -0.152 L 315.2,55 h -0.836 l -4.598,-20.9 h -0.152 l -3.154,15.352 q -0.38,1.938 -0.323,2.888 0.057,0.95 0.741,1.235 0.684,0.285 2.128,0.285 L 308.778,55 H 300 l 0.228,-1.14 q 1.482,0 2.28,-0.285 0.798,-0.285 1.254,-1.235 0.456,-0.95 0.836,-2.888 L 307.6,34.67 q 0.304,-1.444 0.19,-2.185 -0.114,-0.741 -0.817,-1.026 -0.703,-0.285 -2.223,-0.285 l 0.228,-1.14 h 7.6 l 4.104,19.228 h 0.152 l 11.59,-19.228 h 7.182 l -0.228,1.14 q -1.33,0 -2.109,0.285 -0.779,0.285 -1.197,1.026 -0.418,0.741 -0.722,2.147 l -3.23,15.846 q -0.418,2.09 0.209,2.736 0.627,0.646 2.641,0.646 z"
       id="path4" />
  </g>
  <path
     style="font-variation-settings:normal;opacity:1;vector-effect:none;fill:none;fill-opacity:1;stroke:#000000;stroke-width:1.5;stroke-linecap:butt;stroke-linejoin:miter;stroke-miterlimit:4;stroke-dasharray:none;stroke-dashoffset:0;stroke-opacity:1;-inkscape-stroke:none;stop-color:#000000;stop-opacity:1"
     d="M 0.82499999,65.285511 H 353.40968"
     id="path5" />
  <g
     id="g6"
     style="fill:none;stroke:none"
     transform="translate(0.82499999,2.8701676)">
    <path
       style="fill:none;stroke:none;stroke-width:1.65"
       d="M 1.181126,62.415344 0,63.59647 M 3.776213,73.608842 14.969711,62.415344 m 13.788586,0 -11.193498,11.193498 m 13.788586,0 11.193498,-11.193498 m 13.788585,0 -11.193498,11.193498 m 13.788586,0 11.193498,-11.193498 m 13.788586,0 -11.193498,11.193498 m 13.788585,0 11.193498,-11.193498 m 13.788585,0 -11.1935,11.193498 m 13.78859,0 11.1935,-11.193498 m 13.78858,0 -11.1935,11.193498 m 13.78859,0 11.1935,-11.193498 m 13.78858,0 -11.19349,11.193498 m 13.78858,0 11.1935,-11.193498 m 13.78858,0 -11.19349,11.193498 m 13.78858,0 11.1935,-11.193498 m 13.78859,0 -11.1935,11.193498 m 13.78858,0 11.1935,-11.193498 m 13.78859,0 -11.1935,11.193498 m 13.78859,0 11.19349,-11.193498 m 13.78859,0 -11.1935,11.193498 m 13.78859,0 11.19349,-11.193498 m 13.78859,0 -11.1935,11.193498 m 13.78859,0 11.1935,-11.193498 m 13.78858,0 -11.1935,11.193498 m 13.78859,0 11.1935,-11.193498 m 7.70591,6.082673 -5.11083,5.110825"
       id="path6" />
    <g
       id="g7"
       style="fill:none;stroke:none">
      <rect
         style="opacity:0.993366;fill:none;fill-opacity:0.01;stroke:none;stroke-width:1.65;stroke-linejoin:bevel;paint-order:stroke fill markers"
         id="rect5"
         width="353.60168"
         height="11.193498"
         x="0"
         y="62.415344" />
      <path
         style="fill:none;stroke:none;stroke-width:1.65"
         d="M 1.181126,62.415344 0,63.59647 M 3.776213,73.608842 14.969711,62.415344 m 13.788586,0 -11.193498,11.193498 m 13.788586,0 11.193498,-11.193498 m 13.788585,0 -11.193498,11.193498 m 13.788586,0 11.193498,-11.193498 m 13.788586,0 -11.193498,11.193498 m 13.788585,0 11.193498,-11.193498 m 13.788585,0 -11.1935,11.193498 m 13.78859,0 11.1935,-11.193498 m 13.78858,0 -11.1935,11.193498 m 13.78859,0 11.1935,-11.193498 m 13.78858,0 -11.19349,11.193498 m 13.78858,0 11.1935,-11.193498 m 13.78858,0 -11.19349,11.193498 m 13.78858,0 11.1935,-11.193498 m 13.78859,0 -11.1935,11.193498 m 13.78858,0 11.1935,-11.193498 m 13.78859,0 -11.1935,11.193498 m 13.78859,0 11.19349,-11.193498 m 13.78859,0 -11.1935,11.193498 m 13.78859,0 11.19349,-11.193498 m 13.78859,0 -11.1935,11.193498 m 13.78859,0 11.1935,-11.193498 m 13.78858,0 -11.1935,11.193498 m 13.78859,0 11.1935,-11.193498 m 7.70591,6.082673 -5.11083,5.110825"
         id="path7" />
    </g>
  </g>
  <g
     id="g8"
     transform="translate(0.82499999,2.8701676)">
    <rect
       style="opacity:0.993366;fill:none;fill-opacity:0.01;stroke:#000000;stroke-width:1.65;stroke-linejoin:bevel;stroke-opacity:1;paint-order:stroke fill markers"
       id="rect7"
       width="353.60168"
       height="11.193498"
       x="0"
       y="62.415344"
       ry="0" />
    <path
       style="fill:none;stroke:#000000;stroke-width:1.65"
       d="M 3.302447,62.415344 0,65.717791 m 6.321798,7.891051 11.193498,-11.193498 m 14.21285,0 -11.193498,11.193498 m 14.21285,0 11.193498,-11.193498 m 14.21285,0 -11.193498,11.193498 m 14.21285,0 11.193498,-11.193498 m 14.21285,0 -11.193498,11.193498 m 14.21285,0 11.193502,-11.193498 m 14.21285,0 -11.1935,11.193498 m 14.21285,0 11.19349,-11.193498 m 14.21285,0 -11.19349,11.193498 m 14.21285,0 11.19349,-11.193498 m 14.21285,0 -11.19349,11.193498 m 14.21285,0 11.1935,-11.193498 m 14.21284,0 -11.19349,11.193498 m 14.21285,0 11.19349,-11.193498 m 14.21285,0 -11.19349,11.193498 m 14.21285,0 11.19349,-11.193498 m 14.21285,0 -11.19349,11.193498 m 14.21285,0 11.19349,-11.193498 m 14.21285,0 -11.19349,11.193498 m 14.21285,0 11.19349,-11.193498 m 14.21285,0 -11.19349,11.193498 m 14.21285,0 11.19349,-11.193498 m 14.21285,0 -11.19349,11.193498 m 14.21285,0 6.17148,-6.171485"
       id="path8" />
  </g>
  <path
     style="font-variation-settings:normal;opacity:1;fill:none;fill-opacity:1;stroke:#000000;stroke-width:3;stroke-linecap:butt;stroke-linejoin:miter;stroke-miterlimit:4;stroke-dasharray:none;stroke-dashoffset:0;stroke-opacity:1;stop-color:#000000;stop-opacity:1"
     d="m 40.126674,63.406504 -0.0061,-25.616311 H 292.21876 v 25.61631 z"
     id="path9"
     sodipodi:nodetypes="ccccc" />
  <path
     style="font-variation-settings:normal;opacity:1;fill:none;fill-opacity:1;stroke:#000000;stroke-width:3;stroke-linecap:butt;stroke-linejoin:miter;stroke-miterlimit:4;stroke-dasharray:none;stroke-dashoffset:0;stroke-opacity:1;stop-color:#000000;stop-opacity:1"
     d="M 96.026678,37.6 V 1.5 h 41.925302 v 36.290193"
     id="path10" />
  <path
     style="font-variation-settings:normal;opacity:1;vector-effect:none;fill:none;fill-opacity:1;stroke:#000000;stroke-width:1.5;stroke-linecap:butt;stroke-linejoin:miter;stroke-miterlimit:4;stroke-dasharray:none;stroke-dashoffset:0;stroke-opacity:1;-inkscape-stroke:none;marker-end:url(#ConcaveTriangle);stop-color:#000000;stop-opacity:1"
     d="M 137.95198,19.645096 H 181.1546"
     id="path11" />
</svg>

<svg xmlns="http://www.w3.org/2000/svg" version="1.0" width="353.601674pt" height="73.608840pt" viewBox="0 0 353.601674 73.608840" preserveAspectRatio="xMidYMid meet">
<metadata>
Created by potrace 1.16, written by Peter Selinger 2001-2019
</metadata>
<g transform="translate(-2.398326,107.608840) scale(0.100000,-0.100000)" fill="#000000" stroke="none">
<path d="M976 1071 c-2 -3 -3 -86 -2 -183 l2 -178 -166 -1 c-223 -2 -222 -2 -245 1 -11 2 -48 0 -82 -4 l-63 -8 -2 -106 c-1 -59 -2 -115 -1 -124 0 -13 -9 -18 -31 -19 -17 0 -100 -3 -184 -5 -84 -2 -161 -8 -170 -14 -14 -7 -11 -9 16 -10 38 0 39 -3 12 -37 -31 -40 -15 -40 30 1 30 27 49 36 75 36 41 0 42 -3 15 -37 -32 -41 -13 -40 28 0 28 27 46 37 70 37 37 0 39 -3 12 -30 -11 -11 -20 -27 -20 -36 0 -16 2 -15 71 48 19 18 69 24 82 11 4 -3 -3 -17 -15 -30 -20 -21 -20 -23 -3 -23 10 0 30 11 44 24 17 16 44 26 79 31 58 8 64 0 27 -35 -25 -23 -32 -40 -17 -40 4 0 27 18 51 40 39 37 47 40 99 40 l56 0 -34 -35 c-22 -23 -29 -35 -19 -35 8 0 30 16 49 35 26 27 42 35 69 35 l34 0 -21 -23 c-44 -46 -19 -51 32 -6 28 24 43 30 71 27 l35 -3 -26 -28 c-40 -43 -19 -46 24 -4 36 35 41 37 85 31 44 -6 46 -8 32 -24 -31 -34 -14 -43 20 -10 29 28 44 34 92 38 l57 5 -27 -33 c-39 -46 -25 -50 23 -6 34 30 47 36 86 36 l45 0 -20 -26 c-30 -38 -27 -67 3 -33 33 38 65 56 114 63 48 7 50 4 22 -41 -27 -45 -12 -41 30 7 30 34 41 40 76 40 51 0 57 -6 37 -36 -21 -32 -1 -31 41 1 25 19 45 25 81 25 l48 0 -22 -24 c-30 -32 -9 -45 22 -14 39 39 72 49 130 39 4 0 -2 -14 -14 -31 -35 -46 -14 -47 36 -1 37 34 51 41 87 41 l41 0 -21 -23 c-12 -13 -22 -30 -22 -38 0 -8 3 -10 8 -4 4 6 22 23 40 38 27 22 43 27 85 27 l52 -1 -33 -27 c-18 -15 -30 -31 -26 -35 4 -4 27 9 50 29 37 30 50 35 85 32 l41 -3 -26 -28 c-47 -51 -26 -52 34 -2 35 29 50 35 88 35 l46 0 -29 -30 c-39 -41 -14 -38 42 5 34 26 56 35 84 35 39 0 53 -15 24 -26 -18 -7 -39 -43 -31 -51 3 -3 26 13 51 36 39 36 50 41 92 41 l46 0 -23 -25 c-35 -37 -16 -43 28 -8 20 16 50 32 66 35 55 11 76 -13 31 -34 -14 -6 -25 -17 -25 -25 0 -19 55 10 73 37 9 16 23 20 66 20 l55 0 -33 -29 c-53 -47 -31 -56 28 -11 40 29 64 40 90 40 l36 0 -30 -25 c-16 -13 -33 -24 -37 -25 -9 0 -11 -30 -3 -30 11 0 81 48 99 69 13 14 31 21 58 21 21 0 38 -2 38 -5 0 -3 -12 -16 -27 -29 -15 -13 -22 -25 -16 -29 6 -4 28 9 51 28 32 28 49 35 81 35 47 0 52 -11 16 -34 -25 -17 -33 -36 -15 -36 5 0 27 16 49 35 29 26 47 35 75 35 43 0 45 -8 11 -40 -24 -23 -33 -50 -17 -50 18 0 72 70 72 94 l0 27 -312 -6 -313 -6 2 124 1 125 -49 6 c-27 4 -95 4 -151 1 -57 -2 -321 -7 -587 -10 -266 -3 -486 -6 -490 -7 -3 0 -63 0 -133 1 l-128 1 0 88 0 89 102 6 c125 8 218 0 218 -19 0 -18 11 -17 57 1 21 7 53 16 71 19 73 10 51 33 -41 43 -95 10 -92 10 -90 -7 3 -14 -18 -16 -155 -15 l-157 1 -5 80 -5 79 -208 1 c-114 1 -209 -2 -211 -5z m395 -163 c1 -79 3 -155 5 -170 l3 -28 -137 -1 c-147 -1 -197 -1 -224 0 -16 1 -18 16 -18 171 l0 170 185 0 185 0 1 -142z m1522 -212 c15 -12 18 -29 18 -116 0 -57 -2 -105 -5 -107 -5 -6 -91 -7 -801 -18 -225 -4 -422 -8 -437 -10 -16 -2 -28 1 -28 7 0 6 -8 7 -17 3 -10 -4 -280 -9 -600 -11 l-582 -4 6 112 c2 62 6 118 8 124 2 7 297 11 956 12 892 2 1438 8 1448 18 7 7 15 4 34 -10z" />
</g>
<g><path d="M 115.105 28 L 115.105 28 L 112.2 28 Q 112.97 25.2 113.653 22.348 Q 114.335 19.495 114.965 16.625 Q 115 16.555 115.088 16.065 Q 115.175 15.575 115.175 15.155 Q 115.175 14.56 114.947 14.158 Q 114.72 13.755 114.125 13.755 Q 113.25 13.755 112.218 14.665 Q 111.185 15.575 110.153 17.01 Q 109.12 18.445 108.192 20.09 Q 107.265 21.735 106.6 23.205 L 105.515 28 L 102.645 28 L 105.445 14.7 Q 105.445 14.7 105.498 14.315 Q 105.55 13.93 105.55 13.545 Q 105.55 13.09 105.305 12.845 Q 105.06 12.6 104.43 12.6 Q 104.08 12.6 103.695 12.635 Q 103.31 12.67 103.31 12.67 L 103.31 11.725 L 108.14 11.34 L 108.945 11.34 L 107.195 18.935 L 107.475 18.935 Q 108.035 17.885 108.858 16.573 Q 109.68 15.26 110.748 14.035 Q 111.815 12.81 113.11 12.023 Q 114.405 11.235 115.91 11.235 Q 117.24 11.235 117.677 12.005 Q 118.115 12.775 118.115 13.72 Q 118.115 14.49 117.975 15.33 Q 117.835 16.17 117.8 16.31 L 117.205 18.55 L 117.485 18.55 Q 118.045 17.535 118.85 16.293 Q 119.655 15.05 120.688 13.895 Q 121.72 12.74 122.927 11.988 Q 124.135 11.235 125.5 11.235 Q 126.83 11.235 127.285 12.005 Q 127.74 12.775 127.74 13.72 Q 127.74 14.385 127.6 15.155 Q 127.46 15.925 127.39 16.31 L 125.465 24.395 Q 125.465 24.395 125.412 24.657 Q 125.36 24.92 125.36 25.235 Q 125.36 25.9 126.025 25.9 Q 126.935 25.9 127.582 25.235 Q 128.23 24.57 128.65 24.08 L 129.35 24.605 Q 128.895 25.235 128.248 26.128 Q 127.6 27.02 126.707 27.685 Q 125.815 28.35 124.555 28.35 Q 123.225 28.35 122.735 27.703 Q 122.245 27.055 122.245 26.285 Q 122.245 25.865 122.315 25.462 Q 122.385 25.06 122.42 24.92 L 124.205 18.13 Q 124.38 17.43 124.572 16.573 Q 124.765 15.715 124.765 15.155 Q 124.765 14.56 124.537 14.158 Q 124.31 13.755 123.715 13.755 Q 123.05 13.755 122.227 14.42 Q 121.405 15.085 120.513 16.153 Q 119.62 17.22 118.797 18.498 Q 117.975 19.775 117.292 21 Q 116.61 22.225 116.225 23.17 Z " /></g><g><path d="M 214.56 7.228 L 214.56 7.228 L 213.42 7.228 Q 213.458 5.404 213.211 4.378 Q 212.964 3.352 211.9 2.934 Q 210.836 2.516 208.366 2.516 L 202.666 2.516 L 200.614 12.396 L 204.832 12.396 Q 206.466 12.396 207.359 12.092 Q 208.252 11.788 208.727 10.971 Q 209.202 10.154 209.506 8.634 L 210.722 8.634 L 208.974 17.488 L 207.72 17.488 Q 208.024 15.854 207.872 15.094 Q 207.72 14.334 206.903 14.087 Q 206.086 13.84 204.452 13.84 L 200.348 13.84 L 198.714 21.972 Q 198.638 22.352 198.6 22.675 Q 198.562 22.998 198.562 23.264 Q 198.562 24.252 199.474 24.556 Q 200.386 24.86 202.134 24.86 L 201.944 26 L 191 26 L 191.228 24.86 Q 192.558 24.86 193.337 24.632 Q 194.116 24.404 194.591 23.701 Q 195.066 22.998 195.332 21.592 L 198.714 5.328 Q 198.98 3.998 198.866 3.333 Q 198.752 2.668 198.03 2.421 Q 197.308 2.174 195.75 2.174 L 195.978 1.034 L 215.586 1.034 Z " /></g><g><path d="M 330.742 55 L 330.742 55 L 320.596 55 L 320.824 53.86 Q 322.23 53.86 322.971 53.594 Q 323.712 53.328 324.092 52.587 Q 324.472 51.846 324.738 50.478 L 328.12 34.062 L 327.968 34.062 L 315.2 55 L 314.364 55 L 309.766 34.1 L 309.614 34.1 L 306.46 49.452 Q 306.08 51.39 306.137 52.34 Q 306.194 53.29 306.878 53.575 Q 307.562 53.86 309.006 53.86 L 308.778 55 L 300 55 L 300.228 53.86 Q 301.71 53.86 302.508 53.575 Q 303.306 53.29 303.762 52.34 Q 304.218 51.39 304.598 49.452 L 307.6 34.67 Q 307.904 33.226 307.79 32.485 Q 307.676 31.744 306.973 31.459 Q 306.27 31.174 304.75 31.174 L 304.978 30.034 L 312.578 30.034 L 316.682 49.262 L 316.834 49.262 L 328.424 30.034 L 335.606 30.034 L 335.378 31.174 Q 334.048 31.174 333.269 31.459 Q 332.49 31.744 332.072 32.485 Q 331.654 33.226 331.35 34.632 L 328.12 50.478 Q 327.702 52.568 328.329 53.214 Q 328.956 53.86 330.97 53.86 Z " /></g></svg>
